view/frontend/web/svg/flags/ck.svg

<svg width="24" height="24" viewbox="0 0 20 15" viewBox="0 0 20 15" fill="none" xmlns="http://www.w3.org/2000/svg">
<g clip-path="url(#clip0_270_61010)">
<rect width="20" height="15" fill="white"/>
<path fill-rule="evenodd" clip-rule="evenodd" d="M0 0V15H20V0H0Z" fill="#2E42A5"/>
<g clip-path="url(#clip1_270_61010)">
<rect width="11" height="9" fill="#2E42A5"/>
<path d="M-1.25267 8.12488L1.22292 9.21063L11.3062 1.18046L12.612 -0.432999L9.9647 -0.795888L5.85198 2.66454L2.54167 4.99607L-1.25267 8.12488Z" fill="#F7FCFF"/>
<path d="M-0.913757 8.88561L0.347444 9.51569L12.1431 -0.582886H10.3722L-0.913757 8.88561Z" fill="#F50100"/>
<path d="M12.5027 8.12487L10.3056 9.52057L-0.0561714 1.18044L-1.36199 -0.433015L1.2853 -0.795905L5.39802 2.66453L8.70833 4.99605L12.5027 8.12487Z" fill="#F7FCFF"/>
<path d="M12.4182 8.67082L11.157 9.3009L6.13429 4.97718L4.64517 4.4941L-1.48764 -0.427482H0.283231L6.4126 4.37728L8.04069 4.95655L12.4182 8.67082Z" fill="#F50100"/>
<path fill-rule="evenodd" clip-rule="evenodd" d="M6 0H5V4H0V5H5V9H6V5H11V4H6V0Z" fill="#F50100"/>
<path fill-rule="evenodd" clip-rule="evenodd" d="M4.0625 0H6.9375V3.0625L11 3V5.875L6.9375 5.9375V9H4.0625V5.9375L0 5.875V3L4.0625 3.0625V0ZM5 4H0V5H5V9H6V5H11V4H6V0H5V4Z" fill="#F7FCFF"/>
</g>
<path fill-rule="evenodd" clip-rule="evenodd" d="M14.9068 9.28445L15.5692 8.82303L16.2101 9.28445L16.0109 8.46332L16.5256 7.94295H15.8705L15.5683 7.27283L15.3105 7.94295H14.5421L15.1304 8.46332L14.9068 9.28445ZM16.6648 10.0709L17.3272 9.60948L17.7184 9.89116L17.5929 10.2175H16.8245L17.4128 10.7378L17.3038 11.138L17.2277 10.9692L16.97 11.6393H16.2015L16.7899 12.1597L16.5662 12.9808L17.2286 12.5194L17.8695 12.9808L17.6703 12.1597L18.185 11.6393H17.5299L17.4209 11.3976L17.8516 11.0975L18.4925 11.559L18.2932 10.7378L18.808 10.2175H18.1529L17.8507 9.54734L17.8448 9.56268L17.7688 9.24977L18.2835 8.7294H17.6285L17.3263 8.05928L17.0685 8.7294H16.3001L16.8884 9.24977L16.6648 10.0709ZM15.636 13.2982L14.9736 13.7596L15.1972 12.9385L14.6622 12.4653L14.7933 13.0055L14.1524 12.544L13.49 13.0055L13.7136 12.1843L13.1253 11.664H13.8937L13.9457 11.5288L13.3609 11.1078L12.6985 11.5693L12.9222 10.7481L12.3338 10.2278H13.1023L13.36 9.55764L13.3955 9.63638L13.4929 9.2788L12.9046 8.75843H13.673L13.9307 8.08831L14.2329 8.75843H14.888L14.3733 9.2788L14.5726 10.0999L13.9317 9.63851L13.5244 9.9222L13.6622 10.2278H14.3173L13.8026 10.7481L13.9741 11.455L14.1515 10.9938L14.4537 11.664H15.1088L14.594 12.1843L14.6508 12.4181H15.3773L15.635 11.748L15.9373 12.4181H16.5923L16.0776 12.9385L16.2769 13.7596L15.636 13.2982Z" fill="white"/>
</g>
<defs>
<clipPath id="clip0_270_61010">
<rect width="20" height="15" fill="white"/>
</clipPath>
<clipPath id="clip1_270_61010">
<rect width="11" height="9" fill="white"/>
</clipPath>
</defs>
</svg>

<svg width="24" height="24" viewbox="0 0 20 15" fill="none" xmlns="http://www.w3.org/2000/svg">
  <mask id="a" maskUnits="userSpaceOnUse" x="0" y="0" width="20" height="15">
    <path fill="#fff" d="M0 0h20v15H0z"/>
  </mask>
  <g mask="url(#a)">
    <path fill-rule="evenodd" clip-rule="evenodd" d="M0 0v15h20V0H0z" fill="#2E42A5"/>
    <mask id="b" maskUnits="userSpaceOnUse" x="0" y="0" width="20" height="15">
      <path fill-rule="evenodd" clip-rule="evenodd" d="M0 0v15h20V0H0z" fill="#fff"/>
    </mask>
    <g mask="url(#b)">
      <path fill="#2E42A5" d="M0 0h11v9H0z"/>
      <mask id="c" maskUnits="userSpaceOnUse" x="0" y="0" width="11" height="9">
        <path fill="#fff" d="M0 0h11v9H0z"/>
      </mask>
      <g mask="url(#c)">
        <path d="M-1.253 8.125L1.223 9.21l10.083-8.03 1.306-1.614-2.647-.363-4.113 3.46-3.31 2.332-3.795 3.129z" fill="#F7FCFF"/>
        <path d="M-.914 8.886l1.261.63L12.143-.583h-1.77L-.915 8.886z" fill="#F50100"/>
        <path d="M12.503 8.125L10.306 9.52-.056 1.18-1.362-.434l2.647-.363 4.113 3.46 3.31 2.332 3.795 3.129z" fill="#F7FCFF"/>
        <path d="M12.418 8.67l-1.261.63-5.023-4.323-1.489-.483-6.133-4.921H.283l6.13 4.804 1.628.58 4.377 3.714z" fill="#F50100"/>
        <mask id="d" maskUnits="userSpaceOnUse" x="-1" y="-1" width="13" height="11" fill="#000">
          <path fill="#fff" d="M-1-1h13v11H-1z"/>
          <path fill-rule="evenodd" clip-rule="evenodd" d="M6 0H5v4H0v1h5v4h1V5h5V4H6V0z"/>
        </mask>
        <path fill-rule="evenodd" clip-rule="evenodd" d="M6 0H5v4H0v1h5v4h1V5h5V4H6V0z" fill="#F50100"/>
        <path d="M5 0v-.938h-.938V0H5zm1 0h.938v-.938H6V0zM5 4v.938h.938V4H5zM0 4v-.938h-.938V4H0zm0 1h-.938v.938H0V5zm5 0h.938v-.938H5V5zm0 4h-.938v.938H5V9zm1 0v.938h.938V9H6zm0-4v-.938h-.938V5H6zm5 0v.938h.938V5H11zm0-1h.938v-.938H11V4zM6 4h-.938v.938H6V4zM5 .937h1V-.938H5V.938zM5.938 4V0H4.063v4h1.875zM0 4.938h5V3.063H0v1.874zM.938 5V4H-.938v1H.938zM5 4.062H0v1.875h5V4.063zM5.938 9V5H4.063v4h1.875zM6 8.062H5v1.876h1V8.062zM5.062 5v4h1.875V5H5.063zM11 4.062H6v1.875h5V4.063zM10.062 4v1h1.876V4h-1.876zM6 4.938h5V3.063H6v1.874zM5.062 0v4h1.875V0H5.063z" fill="#F7FCFF" mask="url(#d)"/>
      </g>
      <path fill-rule="evenodd" clip-rule="evenodd" d="M14.907 9.284l.662-.461.641.461-.2-.82.516-.521h-.655l-.303-.67-.258.67h-.768l.588.52-.223.821zm1.758.787l.662-.462.391.282-.125.326h-.768l.588.52-.11.401-.075-.169-.258.67h-.768l.588.52-.224.822.663-.462.64.462-.199-.821.515-.52h-.655l-.11-.242.432-.3.64.461-.199-.821.515-.52h-.655l-.302-.67-.006.015-.076-.313.515-.52h-.655l-.303-.67-.258.67H16.3l.588.52-.223.82zm-1.029 3.227l-.662.462.223-.822-.535-.473.131.54-.64-.461-.663.461.224-.82-.589-.521h.769l.052-.135-.585-.421-.663.461.224-.82-.588-.521h.768l.258-.67.036.078.097-.357-.588-.52h.768l.258-.67.302.67h.655l-.515.52.2.82-.641-.46-.408.283.138.306h.655l-.514.52.171.707.178-.461.302.67h.655l-.515.52.057.234h.726l.258-.67.302.67h.655l-.514.52.199.822-.641-.462z" fill="#fff"/>
    </g>
  </g>
</svg>
